icons/monitor-back.svg

<svg width="24" height="24" viewBox="0 0 24 24" fill="none" xmlns="http://www.w3.org/2000/svg">
<path fill-rule="evenodd" clip-rule="evenodd" d="M4.70001 2.75C3.3858 2.75 2.25 3.8858 2.25 5.20001V14.8C2.25 16.2428 3.41495 17.25 4.70001 17.25H8.06696L7.76076 19.5683C7.65958 20.0528 7.85753 20.4819 8.10953 20.7568C8.36723 21.0379 8.75936 21.25 9.19989 21.25H14.5999C15.5742 21.25 16.1499 20.4515 16.1499 19.7V19.6507L15.8328 17.25H19.3C20.6142 17.25 21.75 16.1142 21.75 14.8V5.20001C21.75 3.75725 20.5851 2.75 19.3 2.75H4.70001ZM15.6347 15.75H19.3C19.7858 15.75 20.25 15.2858 20.25 14.8V5.20001C20.25 4.64277 19.8149 4.25 19.3 4.25H4.70001C4.21423 4.25 3.75 4.71423 3.75 5.20001V14.8C3.75 15.3572 4.18508 15.75 4.70001 15.75H8.26507L8.4545 14.3158C8.60254 12.7867 9.97131 11.75 11.3999 11.75H12.4999C13.9894 11.75 15.1779 12.8366 15.4378 14.2659L15.441 14.2838L15.6347 15.75ZM9.94681 14.4679C10.007 13.806 10.6336 13.25 11.3999 13.25H12.4999C13.2053 13.25 13.8132 13.7562 13.9589 14.5178L14.6462 19.7216L14.6449 19.7253C14.6414 19.7345 14.6371 19.7404 14.6345 19.7432C14.6326 19.7453 14.6317 19.7457 14.6312 19.7459C14.631 19.746 14.6305 19.7462 14.6297 19.7465C14.6286 19.7469 14.6268 19.7474 14.6243 19.7479C14.6201 19.7488 14.6122 19.75 14.5999 19.75H9.24979L9.94543 14.4831L9.94681 14.4679Z" fill="black"/>
</svg>

<svg xmlns="http://www.w3.org/2000/svg" fill="none" viewBox="0 0 24 24">
  <path fill="#000" fill-rule="evenodd" d="M4.7 2.75c-1.314 0-2.45 1.136-2.45 2.45v9.6c0 1.443 1.165 2.45 2.45 2.45h3.367l-.306 2.318c-.101.485.097.914.349 1.189.257.28.65.493 1.09.493h5.4c.974 0 1.55-.799 1.55-1.55v-.05l-.317-2.4H19.3c1.314 0 2.45-1.136 2.45-2.45V5.2c0-1.443-1.165-2.45-2.45-2.45H4.7Zm10.935 13H19.3c.486 0 .95-.464.95-.95V5.2a.936.936 0 0 0-.95-.95H4.7c-.486 0-.95.464-.95.95v9.6c0 .557.435.95.95.95h3.565l.19-1.434c.148-1.53 1.516-2.566 2.945-2.566h1.1c1.49 0 2.678 1.087 2.938 2.516l.003.018.194 1.466Zm-5.688-1.282c.06-.662.687-1.218 1.453-1.218h1.1c.705 0 1.313.506 1.459 1.268l.687 5.204-.001.003a.056.056 0 0 1-.01.018l-.004.003h-.001a.118.118 0 0 1-.03.003H9.25l.695-5.266.002-.015Z" clip-rule="evenodd"/>
</svg>
